X: 1
T: Loudon's Bonnie Woods
C:
S: BSFC Tune Book XXVII-18
R: strathspey
Z: 2016 John Chambers <jc:trillian.mit.edu>
M: C
L: 1/8
K: G
|:\
"G"G2 G2 B<d d2 | "C"c>A B>G "D"A>G F<D |\
"G"G2 G2 B<d d2 | "C"e<g "D"f<a "G"g2 g2 :|\
"G"g>a b>g "D"a>g f<d | "C"e>f g>e "G"d<B B<G |
"G"g>a b>g "D"a>f f<d | "C"e<g "D"f<a "G"g2 g2 |]\
"G"g>a b>g "D"a>g f<d | "C"e>f g>e "G"d<B B>A |\
"G"G2 G2 B<d d2 | "C"e<g "D"f<a "G"g2 g2 |]
